icons/circle/48/areca.svg

<svg xmlns="http://www.w3.org/2000/svg" viewBox="0 0 48 48">
 <defs>
  <linearGradient id="linearGradient3764" x1="1" x2="47" gradientUnits="userSpaceOnUse" gradientTransform="matrix(0,-1,1,0,-1.5e-6,47.999998)">
   <stop style="stop-color:#186dae;stop-opacity:1"/>
   <stop offset="1" style="stop-color:#1b77bf;stop-opacity:1"/>
  </linearGradient>
 </defs>
 <g>
  <path d="m 36.31 5 c 5.859 4.062 9.688 10.831 9.688 18.5 c 0 12.426 -10.07 22.5 -22.5 22.5 c -7.669 0 -14.438 -3.828 -18.5 -9.688 c 1.037 1.822 2.306 3.499 3.781 4.969 c 4.085 3.712 9.514 5.969 15.469 5.969 c 12.703 0 23 -10.298 23 -23 c 0 -5.954 -2.256 -11.384 -5.969 -15.469 c -1.469 -1.475 -3.147 -2.744 -4.969 -3.781 z m 4.969 3.781 c 3.854 4.113 6.219 9.637 6.219 15.719 c 0 12.703 -10.297 23 -23 23 c -6.081 0 -11.606 -2.364 -15.719 -6.219 c 4.16 4.144 9.883 6.719 16.219 6.719 c 12.703 0 23 -10.298 23 -23 c 0 -6.335 -2.575 -12.06 -6.719 -16.219 z" style="opacity:0.05"/>
  <path d="m 41.28 8.781 c 3.712 4.085 5.969 9.514 5.969 15.469 c 0 12.703 -10.297 23 -23 23 c -5.954 0 -11.384 -2.256 -15.469 -5.969 c 4.113 3.854 9.637 6.219 15.719 6.219 c 12.703 0 23 -10.298 23 -23 c 0 -6.081 -2.364 -11.606 -6.219 -15.719 z" style="opacity:0.1"/>
  <path d="m 31.25 2.375 c 8.615 3.154 14.75 11.417 14.75 21.13 c 0 12.426 -10.07 22.5 -22.5 22.5 c -9.708 0 -17.971 -6.135 -21.12 -14.75 a 23 23 0 0 0 44.875 -7 a 23 23 0 0 0 -16 -21.875 z" style="opacity:0.2"/>
 </g>
 <g>
  <path d="m 24 1 c 12.703 0 23 10.297 23 23 c 0 12.703 -10.297 23 -23 23 -12.703 0 -23 -10.297 -23 -23 0 -12.703 10.297 -23 23 -23 z" style="fill:url(#linearGradient3764);fill-opacity:1"/>
 </g>
 <g>
  <path d="m 40.03 7.531 c 3.712 4.084 5.969 9.514 5.969 15.469 0 12.703 -10.297 23 -23 23 c -5.954 0 -11.384 -2.256 -15.469 -5.969 4.178 4.291 10.01 6.969 16.469 6.969 c 12.703 0 23 -10.298 23 -23 0 -6.462 -2.677 -12.291 -6.969 -16.469 z" style="opacity:0.1"/>
 </g>
 <g transform="translate(0.004,0)">
  <g>
   <g transform="translate(1,1)">
    <g style="opacity:0.1">
     <!-- color: #3d3d3d -->
     <g>
      <path d="m 31 9.994 l -0.006 0.006 l -11.994 0 l -6 7 l -3 -3 l 0 11 l -0.004 0 l 0 5.867 l 0.004 0.004 l 9 9.129 l 11 0 l 7 -7 l 3 3 l 0 -11 l -0.088 0 l 0.088 -0.006 l 0 -5.896 l -9 -9.104 z m -6.967 6.438 l 8.254 8.568 l -3.287 0 l 3 3 l -6.254 5.773 l -9.877 -8.771 l 0.002 -0.002 l 5.129 0 l -3 -3 l 6.03 -5.568 z" transform="translate(-1.004,-1)" style="fill:#000;fill-opacity:1;stroke:none;fill-rule:nonzero"/>
     </g>
    </g>
   </g>
  </g>
 </g>
 <g transform="translate(0.004,0)">
  <g>
   <!-- color: #3d3d3d -->
   <g>
    <path d="M 31.746,24.477 23,15.397 l 7,-6.402 9,9.102 0,5.898 m -7.258,0.48" style="fill:#91beef;fill-opacity:1;stroke:none;fill-rule:nonzero"/>
    <path d="m 18 39 7 -6 -10.133 -9 -5.871 0 0 5.867 m 9 9.133" style="fill:#91beef;fill-opacity:1;stroke:none;fill-rule:nonzero"/>
    <path d="M 9,24 20,24 17,21 30,9 18,9 12,16 9,13 m 0,11" style="fill:#cde2f9;fill-opacity:1;stroke:none;fill-rule:nonzero"/>
    <path d="m 18 39 13 -12 -3 -3 11 0 0 11 -3 -3 -7 7 m -11 0" style="fill:#cde2f9;fill-opacity:1;stroke:none;fill-rule:nonzero"/>
    <path d="M 9,29.871 14.871,24 9,24 m 0,5.871" style="fill:#5fa0e7;fill-opacity:1;stroke:none;fill-rule:nonzero"/>
    <path d="m 23,15.398 13.328,0 L 30,9 m -7,6.398" style="fill:#5fa0e7;fill-opacity:1;stroke:none;fill-rule:nonzero"/>
   </g>
  </g>
 </g>
</svg>

<svg xmlns="http://www.w3.org/2000/svg" viewBox="0 0 48 48">
  <defs>
    <linearGradient id="a" x1="1" x2="47" gradientUnits="userSpaceOnUse" gradientTransform="rotate(-90 24 24)">
      <stop stop-color="#186dae"/>
      <stop offset="1" stop-color="#1b77bf"/>
    </linearGradient>
  </defs>
  <path d="M36.31 5c5.859 4.062 9.688 10.831 9.688 18.5 0 12.426-10.07 22.5-22.5 22.5-7.669 0-14.438-3.828-18.5-9.688a23.24 23.24 0 0 0 3.781 4.969 22.923 22.923 0 0 0 15.469 5.969c12.703 0 23-10.298 23-23a22.92 22.92 0 0 0-5.969-15.469A23.216 23.216 0 0 0 36.31 5zm4.969 3.781A22.911 22.911 0 0 1 47.498 24.5c0 12.703-10.297 23-23 23a22.909 22.909 0 0 1-15.719-6.219C12.939 45.425 18.662 48 24.998 48c12.703 0 23-10.298 23-23 0-6.335-2.575-12.06-6.719-16.219z" opacity=".05"/>
  <path d="M41.28 8.781a22.923 22.923 0 0 1 5.969 15.469c0 12.703-10.297 23-23 23A22.92 22.92 0 0 1 8.78 41.281 22.911 22.911 0 0 0 24.499 47.5c12.703 0 23-10.298 23-23A22.909 22.909 0 0 0 41.28 8.781z" opacity=".1"/>
  <path d="M31.25 2.375C39.865 5.529 46 13.792 46 23.505c0 12.426-10.07 22.5-22.5 22.5-9.708 0-17.971-6.135-21.12-14.75a23 23 0 0 0 44.875-7 23 23 0 0 0-16-21.875z" opacity=".2"/>
  <path d="M24 1c12.703 0 23 10.297 23 23S36.703 47 24 47 1 36.703 1 24 11.297 1 24 1z" fill="url(#a)"/>
  <path d="M40.03 7.531A22.922 22.922 0 0 1 45.999 23c0 12.703-10.297 23-23 23A22.92 22.92 0 0 1 7.53 40.031C11.708 44.322 17.54 47 23.999 47c12.703 0 23-10.298 23-23 0-6.462-2.677-12.291-6.969-16.469z" opacity=".1"/>
  <g>
    <path d="M31 9.994l-.006.006H19l-6 7-3-3v11h-.004v5.867l.004.004L19 40h11l7-7 3 3V25h-.088l.088-.006v-5.896l-9-9.104zm-6.967 6.438L32.287 25H29l3 3-6.254 5.773-9.877-8.771.002-.002H21l-3-3 6.03-5.568z" opacity=".1"/>
  </g>
  <g>
    <path d="M31.75 24.477l-8.746-9.08 7-6.402 9 9.102v5.898m-7.258.48M18.004 39l7-6-10.133-9H9v5.867M18 39" fill="#91beef"/>
    <path d="M9.004 24h11l-3-3 13-12h-12l-6 7-3-3m0 11M18.004 39l13-12-3-3h11v11l-3-3-7 7m-11 0" fill="#cde2f9"/>
    <path d="M9.004 29.871L14.875 24H9.004m0 5.871M23.004 15.398h13.328L30.004 9m-7 6.398" fill="#5fa0e7"/>
  </g>
</svg>
